X: 1
T: The Parting Glass
R: reel
M: 4/4
L: 1/8
K: Amin
|:e>d | c2 B>c A2 AB | cdec d2 cd | e2 a ^f g=fed | c2 a2 g2 e>d |
c2 B>c A2 AB | cdec d2 cd | e2 af gfed | c2 A2 A2 :|
|: e>f | gfga gfed | e2 A2 A2 B>A | gfed cBcd | e2 G2 G2 e>d |
c2 B>c A2 AB | cdec d2 cd | e2 af gfed| c2 A2 A2 :|


Tune 6275	Setting 18065

